X: 26
T: Rakish Paddy
Z: shanachie
S: https://thesession.org/tunes/86#setting54042
R: reel
M: 4/4
L: 1/8
K: Ador
"Am"c3B c2AB|"Am"cBAG FDD2|"D"Add^c defe|"D"dcAG FGAB|
"Am"c2cB c2AB|"Am"cBAG FDD2|"D"DEFG ABcA|"D"dcAG FDDB|
"Am"c3B cBAB|"Am"cBAG FGAB|"D"Add^c defe|"D"dcAG FGAB|
"Am"c2cB cBAB|"Am"cBAG FDD2|"D"DEFG ABcA|"D"dcAG FDD2||
"C"egg2 aggf|"C"eggf ed^cd|"D"eaa2 baag|"D"eaag ed^cd|
"C"egg2 agge-|"D"effe defg|"D"afge fde^c|"D"dcAG FDD2|
"C"egg2 aggf|"C"eggf ed^cd|"D"eaa2 baag|"D"eaag ed^cd|
"C"egg2 agge-|"D"effe defg|"D"afge fde^c|"D"dcAG FGAB||

%-------------------- TUNE SEPARATOR --------------------%

